;FLAVOR:Marlin
;TIME:123
;Filament used: 1.234m
;Layer height: 0.2
;TYPE:WALL-OUTER
G1 F1800 X0 Y0 Z0.2 E0
G1 X10 Y0 E0.5
G1 X10 Y10 E1.0
G1 X0 Y10 E1.5
G1 X0 Y0 E2.0
;LAYER:1
;TYPE:WALL-INNER
G1 Z0.4 F1200
G1 X0 Y0 E2.2
G1 X10 Y0 E2.7
G1 X10 Y10 E3.2
G1 X0 Y10 E3.7
G1 X0 Y0 E4.2
;TYPE:INFILL
G1 Z0.6 F1200
G1 X0 Y0 E4.3
G1 X10 Y10 E5.0
G1 X0 Y10 E5.5
